X:720
T:Quick Step
A:Wyresdale, Lancashire
B:E and J Winder, 1835-41
L:1/8
M:2/4
O:England
Z:Richard Robinson 
%%TUNEURL: http://www.leeds.ac.uk/music/Info/RRTuneBk/gettune/00001062.html
%%ID:00001062
K:F
ff fe/f/ | gg g>a   | bgaf   | e/f/g/e/ cd/e/ | \
ff fe/f/ | gg ga/b/ | c'a bg | ff f2         :: \
c'2 a2 | b2 g2 | ! af f/a/c'/a/ | ag g2 | \
c2  A2 | B2 G2 |   AF F/A/c/A/  | AG GB | \
f/g/a/g/ f/e/d/c/ | f/g/a/g/ f/e/d/c/ | c'abg | ff f2 ::
